; generated by PrusaSlicer 2.5.0+win64 on 2022-11-26 at 18:35:00 UTC


;
;
; 

; external perimeters extrusion width = 0.45mm
; perimeters extrusion width = 0.45mm
; infill extrusion width = 0.45mm
; solid infill extrusion width = 0.45mm
; top infill extrusion width = 0.40mm
; first layer extrusion width = 0.42mm

; external perimeters extrusion width = 0.45mm
; perimeters extrusion width = 0.45mm
; infill extrusion width = 0.45mm
; solid infill extrusion width = 0.45mm
; top infill extrusion width = 0.40mm
; first layer extrusion width = 0.42mm

M73 P0 R64
M73 Q0 S65
M201 X1000 Y1000 Z200 E5000 ; sets maximum accelerations, mm/sec^2
M203 X200 Y200 Z12 E120 ; sets maximum feedrates, mm / sec
M204 P1250 R1250 T1250 ; sets acceleration (P, T) and retract acceleration (R), mm/sec^2
M205 X8.00 Y8.00 Z0.40 E4.50 ; sets the jerk limits, mm/sec
M205 S0 T0 ; sets the minimum extruding and travel feed rate, mm/sec
M107
;TYPE:Custom
M862.3 P "MK3S" ; printer model check
M862.1 P0.4 ; nozzle diameter check
M115 U3.11.0 ; tell printer latest fw version
G90 ; use absolute coordinates
M83 ; extruder relative mode
M104 S215 ; set extruder temp
M140 S60 ; set bed temp
M190 S60 ; wait for bed temp
M109 S215 ; wait for extruder temp
G28 W ; home all without mesh bed level
G80 ; mesh bed leveling

G1 Z0.2 F720
G1 Y-3 F1000 ; go outside print area
G92 E0
G1 X60 E9 F1000 ; intro line
G1 X100 E12.5 F1000 ; intro line

G92 E0
M221 S95

; Don't change E values below. Excessive value can damage the printer.
M907 E430 ; set extruder motor current
G21 ; set units to millimeters
G90 ; use absolute coordinates
M83 ; use relative distances for extrusion
M900 K0.05 ; Filament gcode LA 1.5
M900 K30 ; Filament gcode LA 1.0
M107
;LAYER_CHANGE
;Z:0.2
;HEIGHT:0.2
;BEFORE_LAYER_CHANGE
G92 E0.0
;0.2


M73 Q0 S64
G1 E-.8 F2100
G1 Z.4 F720
;AFTER_LAYER_CHANGE
;0.2
G1 X97.732 Y78.122 F10800
G1 Z.2 F720
G1 E.8 F2100
M204 S800
;TYPE:Skirt/Brim
;WIDTH:0.42
G1 F1200
G1 X98.177 Y77.703 E.01918
G1 X99.015 Y77.189 E.03082
G1 X99.818 Y76.928 E.02648
G1 X100.617 Y76.842 E.02518
G1 X149.569 Y76.849 E1.53487
G1 X150.409 Y76.982 E.02665
G1 X150.985 Y77.189 E.01918
G1 X151.812 Y77.694 E.03039
G1 X152.268 Y78.122 E.0196
G1 X152.643 Y78.605 E.01918
G1 X153.021 Y79.345 E.02606
G1 X153.277 Y80.557 E.03882
G1 X153.284 Y129.257 E1.52697
G1 X153.2 Y130.05 E.02501
G1 X153.029 Y130.638 E.01918
G1 X152.647 Y131.388 E.02639
G1 X152.268 Y131.878 E.01944
G1 X151.521 Y132.517 E.03082
G1 X150.985 Y132.811 E.01918
G1 X150.176 Y133.074 E.02665
G1 X149.383 Y133.158 E.02501
G1 X100.617 Y133.158 E1.52902
G1 X99.824 Y133.074 E.02502
G1 X99.236 Y132.903 E.01918
G1 X98.479 Y132.517 E.02664
G1 X97.996 Y132.142 E.01918
G1 X97.576 Y131.697 E.01918
G1 X97.063 Y130.859 E.03082
G1 X96.8 Y130.05 E.02664
G1 X96.716 Y129.257 E.02502
G1 X96.716 Y80.743 E1.52112
G1 X96.8 Y79.95 E.02502
G1 X96.971 Y79.362 E.01918
G1 X97.354 Y78.61 E.02648
G1 X97.695 Y78.169 E.01747
M204 S1000
; printing object V2-Front_Section.STL id:1 copy 0
;WIPE_START
G1 F8640
G1 X98.177 Y77.703 E-.15494
G1 X99.015 Y77.189 E-.22695
G1 X99.818 Y76.928 E-.19499
G1 X100.607 Y76.843 E-.18313
;WIPE_END
G1 E-.04 F2100
G1 Z.6 F720
G1 X130.413 Y80.383 F10800
G1 Z.2 F720
G1 E.8 F2100
M204 S800
;TYPE:Perimeter
;WIDTH:0.419999
G1 F1200
G1 X149.301 Y80.383 E.59222
G1 X149.587 Y80.462 E.00931
G1 X149.688 Y80.587 E.00504
G1 X149.743 Y80.862 E.00881
G1 X149.743 Y129.138 E1.51363
G1 X149.713 Y129.365 E.00719
G1 X149.587 Y129.538 E.00671
G1 X149.301 Y129.617 E.00931
G1 X130.198 Y129.617 E.59894
G1 X129.971 Y129.587 E.00719
G1 X129.798 Y129.461 E.00671
G1 X129.719 Y129.175 E.00931
G1 X129.719 Y80.862 E1.5148
G1 X129.749 Y80.635 E.00719
M73 P0 R63
G1 X129.875 Y80.462 E.00671
G1 X130.161 Y80.383 E.00931
G1 X130.353 Y80.383 E.00601
M204 S1000
G1 X130.413 Y80.006 F10800
M204 S800
G1 F1200
G1 X149.264 Y80.006 E.59105
G1 X149.609 Y80.05 E.01091
G1 X149.892 Y80.233 E.01058
G1 X150.076 Y80.517 E.01061
G1 X150.12 Y80.862 E.01091
G1 X150.12 Y129.138 E1.51363
G1 X150.076 Y129.483 E.01091
G1 X149.893 Y129.766 E.01058
G1 X149.609 Y129.95 E.01061
G1 X149.33 Y129.994 E.00884
G1 X130.198 Y129.994 E.59986
G1 X129.853 Y129.95 E.01091
G1 X129.57 Y129.767 E.01058
G1 X129.386 Y129.483 E.01061
G1 X129.342 Y129.204 E.00884
G1 X129.342 Y80.862 E1.51572
G1 X129.386 Y80.517 E.01091
G1 X129.569 Y80.234 E.01058
G1 X129.853 Y80.05 E.01061
G1 X130.132 Y80.006 E.00884
G1 X130.353 Y80.006 E.00693
M204 S1000
G1 X130.413 Y79.629 F10800
M204 S800
;TYPE:External perimeter
G1 F1200
G1 X149.264 Y79.629 E.59105
G1 X149.726 Y79.686 E.01462
G1 X150.036 Y79.844 E.01089
G1 X150.282 Y80.09 E.0109
G1 X150.44 Y80.4 E.01089
G1 X150.497 Y80.862 E.01462
G1 X150.497 Y129.138 E1.51363
G1 X150.44 Y129.6 E.01462
G1 X150.282 Y129.91 E.01089
G1 X150.036 Y130.156 E.0109
G1 X149.726 Y130.314 E.01089
G1 X149.36 Y130.371 E.01164
G1 X130.198 Y130.371 E.60078
G1 X129.736 Y130.314 E.01462
G1 X129.426 Y130.156 E.01089
G1 X129.18 Y129.91 E.0109
G1 X129.022 Y129.6 E.01089
G1 X128.965 Y129.234 E.01164
G1 X128.965 Y80.862 E1.51664
G1 X129.022 Y80.4 E.01462
M73 P1 R63
M73 Q1 S64
G1 X129.18 Y80.09 E.01089
G1 X129.426 Y79.844 E.0109
G1 X129.736 Y79.686 E.01089
G1 X130.102 Y79.629 E.01164
G1 X130.353 Y79.629 E.00785
M204 S1000
G1 X130.622 Y79.97 F10800
;WIPE_START
G1 F8640
G1 X133.644 Y79.629 E-.76
;WIPE_END
G1 E-.04 F2100
G1 Z.6 F720
G1 X145.707 Y115.021 F10800
G1 Z.2 F720
G1 E.8 F2100
M204 S800
;TYPE:Perimeter
G1 F1200
G1 X146.345 Y115.642 E.02792
G1 X146.708 Y116.157 E.01974
G1 X146.836 Y116.443 E.00984
G1 X146.98 Y117.121 E.02173
G1 X146.938 Y117.656 E.01682
G1 X146.825 Y118.032 E.01232
G1 X146.606 Y118.43 E.01426
G1 X146.369 Y118.712 E.01152
G1 X145.97 Y119.006 E.01555
G1 X145.376 Y119.197 E.01955
G1 X144.981 Y119.233 E.01244
G1 X144.726 Y119.228 E.00799
G1 X144.197 Y119.928 E.02751
G1 X143.701 Y120.375 E.02095
G1 X143.155 Y120.718 E.02021
G1 X142.563 Y120.964 E.02011
G1 X141.967 Y121.117 E.01929
G1 X141.335 Y121.179 E.0199
G1 X140.701 Y121.142 E.0199
G1 X140.081 Y121.007 E.01991
G1 X139.496 Y120.777 E.01972
G1 X138.959 Y120.463 E.01947
G1 X138.551 Y120.134 E.01644
G1 X138.062 Y119.613 E.02242
G1 X137.762 Y119.174 E.01665
G1 X137.447 Y118.525 E.02262
G1 X137.276 Y117.906 E.02013
G1 X137.21 Y117.268 E.02013
G1 X137.245 Y116.69 E.01814
G1 X137.352 Y116.121 E.01816
G1 X137.043 Y116.281 E.0109
G1 X136.809 Y116.528 E.01067
G1 X136.483 Y116.977 E.01739
G1 X136.163 Y117.283 E.0139
G1 X135.906 Y117.428 E.00924
G1 X135.572 Y117.539 E.01105
G1 X135.006 Y117.524 E.01774
G1 X134.774 Y117.473 E.00745
G1 X134.325 Y117.222 E.01613
G1 X134.126 Y117.059 E.00806
G1 X133.658 Y116.556 E.02154
G1 X133.182 Y115.865 E.02633
G1 X132.822 Y115.106 E.02633
G1 X132.588 Y114.3 E.02633
G1 X132.485 Y113.466 E.02633
G1 X132.516 Y112.627 E.02633
G1 X132.681 Y111.804 E.02633
G1 X132.971 Y111.027 E.02601
G1 X133.346 Y110.231 E.02757
G1 X133.906 Y109.417 E.03099
G1 X134.598 Y108.712 E.03099
G1 X135.403 Y108.138 E.03099
G1 X136.411 Y107.668 E.03488
G1 X137.981 Y107.202 E.05134
G1 X139.47 Y106.967 E.04727
G1 X139.909 Y106.951 E.01379
G1 X141.109 Y106.929 E.03763
G1 X142.132 Y107.062 E.03236
G1 X143.095 Y107.317 E.03123
G1 X144.021 Y107.69 E.03128
G1 X144.691 Y108.07 E.02416
G1 X145.315 Y108.578 E.02523
G1 X145.844 Y109.185 E.02523
G1 X146.262 Y109.872 E.02523
G1 X146.556 Y110.621 E.02523
G1 X146.719 Y111.409 E.02523
G1 X146.745 Y112.213 E.02521
G1 X146.641 Y112.995 E.02474
G1 X146.435 Y113.725 E.02378
G1 X146.129 Y114.431 E.02413
G1 X145.743 Y114.974 E.02088
M204 S1000
G1 X145.167 Y115.097 F10800
M204 S800
G1 F1200
G1 X145.583 Y115.407 E.01625
G1 X146.077 Y115.908 E.02207
G1 X146.394 Y116.365 E.01744
G1 X146.585 Y116.979 E.02016
G1 X146.563 Y117.624 E.02023
G1 X146.495 Y117.85 E.00739
G1 X146.275 Y118.249 E.01426
G1 X145.898 Y118.606 E.01631
G1 X145.703 Y118.708 E.00687
G1 X145.101 Y118.857 E.01946
G1 X144.503 Y118.847 E.01874
G1 X144.248 Y119.26 E.01521
G1 X143.902 Y119.693 E.01739
G1 X143.456 Y120.088 E.01869
G1 X142.961 Y120.395 E.01825
G1 X142.425 Y120.613 E.01815
G1 X141.878 Y120.75 E.01766
G1 X141.305 Y120.803 E.01805
G1 X140.73 Y120.766 E.01805
G1 X140.168 Y120.64 E.01807
G1 X139.64 Y120.428 E.01783
G1 X139.155 Y120.141 E.01767
G1 X138.72 Y119.783 E.01767
G1 X138.345 Y119.365 E.01761
G1 X138.034 Y118.9 E.01755
G1 X137.792 Y118.373 E.01817
G1 X137.642 Y117.813 E.01817
G1 X137.586 Y117.236 E.01818
G1 X137.621 Y116.722 E.01617
G1 X137.731 Y116.152 E.01821
G1 X137.972 Y115.632 E.01796
G1 X137.321 Y115.733 E.02066
G1 X136.877 Y115.935 E.01528
G1 X136.504 Y116.306 E.01651
G1 X136.178 Y116.755 E.01739
G1 X135.85 Y117.04 E.01364
G1 X135.502 Y117.168 E.01163
G1 X134.999 Y117.143 E.01578
G1 X134.796 Y117.067 E.0068
G1 X134.402 Y116.802 E.01488
G1 X133.934 Y116.299 E.02154
G1 X133.495 Y115.655 E.02444
G1 X133.165 Y114.949 E.02444
G1 X132.951 Y114.2 E.02444
G1 X132.86 Y113.426 E.02444
G1 X132.893 Y112.647 E.02444
G1 X133.05 Y111.883 E.02444
G1 X133.323 Y111.164 E.02413
G1 X133.686 Y110.393 E.02674
G1 X134.213 Y109.635 E.02893
G1 X134.863 Y108.98 E.02893
G1 X135.617 Y108.448 E.02893
G1 X136.521 Y108.029 E.03122
G1 X137.963 Y107.592 E.04726
G1 X139.528 Y107.34 E.04971
G1 X141.116 Y107.306 E.04978
G1 X142.079 Y107.436 E.03048
G1 X142.996 Y107.681 E.02976
G1 X143.877 Y108.038 E.02981
G1 X144.501 Y108.396 E.02253
G1 X145.072 Y108.867 E.02322
G1 X145.556 Y109.428 E.02322
G1 X145.936 Y110.063 E.02322
G1 X146.203 Y110.753 E.02322
G1 X146.349 Y111.479 E.02322
G1 X146.368 Y112.219 E.02319
G1 X146.268 Y112.939 E.02279
G1 X146.074 Y113.619 E.02218
G1 X145.785 Y114.277 E.02253
G1 X145.204 Y115.05 E.03031
M204 S1000
G1 X144.558 Y115.156 F10800
M204 S800
;TYPE:External perimeter
G1 F1200
G1 X144.984 Y115.43 E.01587
G1 X145.315 Y115.672 E.01286
G1 X145.808 Y116.172 E.02204
G1 X146.105 Y116.632 E.01716
G1 X146.226 Y117.121 E.0158
G1 X146.164 Y117.668 E.01727
G1 X145.898 Y118.123 E.01653
G1 X145.597 Y118.346 E.01173
G1 X145.107 Y118.48 E.01592
G1 X144.28 Y118.466 E.02594
G1 X144.042 Y118.908 E.01573
G1 X143.607 Y119.459 E.022
G1 X143.211 Y119.802 E.01644
G1 X142.767 Y120.071 E.01629
G1 X142.287 Y120.262 E.01619
G1 X141.79 Y120.384 E.01604
G1 X141.275 Y120.427 E.01621
G1 X140.759 Y120.39 E.01621
G1 X140.255 Y120.273 E.01622
G1 X139.785 Y120.08 E.01594
G1 X139.351 Y119.819 E.01587
G1 X138.963 Y119.495 E.01587
G1 X138.629 Y119.117 E.01581
G1 X138.349 Y118.693 E.01594
G1 X138.137 Y118.221 E.01622
G1 X138.007 Y117.72 E.01622
G1 X137.961 Y117.205 E.01622
G1 X138.002 Y116.695 E.01603
G1 X138.119 Y116.172 E.01683
G1 X138.372 Y115.704 E.01668
G1 X138.691 Y115.386 E.01412
G1 X138.739 Y115.272 E.00386
G1 X138.508 Y115.138 E.00839
G1 X138.155 Y115.234 E.01145
G1 X137.511 Y115.302 E.0203
G1 X136.916 Y115.483 E.01951
G1 X136.581 Y115.674 E.0121
G1 X136.199 Y116.085 E.01758
G1 X135.873 Y116.533 E.01739
G1 X135.641 Y116.722 E.00937
G1 X135.38 Y116.8 E.00857
G1 X134.992 Y116.746 E.01227
G1 X134.678 Y116.546 E.01167
G1 X134.211 Y116.043 E.02154
G1 X133.809 Y115.446 E.02255
G1 X133.508 Y114.792 E.02255
G1 X133.315 Y114.1 E.02255
G1 X133.234 Y113.385 E.02255
G1 X133.269 Y112.666 E.02255
G1 X133.418 Y111.963 E.02255
G1 X133.674 Y111.301 E.02224
G1 X134.027 Y110.554 E.02591
G1 X134.521 Y109.853 E.02688
G1 X135.128 Y109.248 E.02688
G1 X135.832 Y108.758 E.02688
G1 X136.606 Y108.399 E.02675
G1 X138.072 Y107.952 E.04807
G1 X139.587 Y107.712 E.04808
G1 X141.122 Y107.683 E.04815
G1 X142.026 Y107.809 E.02861
G1 X142.897 Y108.045 E.02829
G1 X143.734 Y108.387 E.02834
G1 X144.31 Y108.722 E.0209
G1 X144.829 Y109.155 E.0212
G1 X145.267 Y109.67 E.0212
G1 X145.611 Y110.253 E.0212
G1 X145.85 Y110.885 E.0212
G1 X145.978 Y111.549 E.0212
G1 X145.991 Y112.225 E.02118
G1 X145.895 Y112.883 E.02085
G1 X145.712 Y113.513 E.02058
G1 X145.44 Y114.123 E.02093
G1 X144.876 Y114.859 E.02908
G1 X144.601 Y115.115 E.01179
M204 S1000
G1 X144.956 Y115.193 F10800
;WIPE_START
G1 F8640
G1 X144.984 Y115.43 E-.11424
G1 X145.315 Y115.672 E-.09469
G1 X145.808 Y116.172 E-.1623
G1 X146.105 Y116.632 E-.12634
G1 X146.226 Y117.121 E-.11633
G1 X146.164 Y117.668 E-.12719
G1 X146.123 Y117.739 E-.0189
;WIPE_END
G1 E-.04 F2100
G1 Z.6 F720
G1 X148.694 Y80.5 F10800
G1 Z.2 F720
G1 E.8 F2100
M204 S800
;TYPE:Solid infill
;WIDTH:0.421505
G1 F1200
G1 X149.46 Y81.265 E.03408
G1 X149.46 Y81.801 E.01685
G1 X148.329 Y80.669 E.05037
G1 X147.793 Y80.669 E.01686
G1 X149.46 Y82.336 E.07421
G1 X149.46 Y82.871 E.01685
G1 X147.258 Y80.669 E.09805
G1 X146.722 Y80.669 E.01686
G1 X149.46 Y83.407 E.12189
G1 X149.46 Y83.942 E.01685
G1 X146.187 Y80.669 E.14572
G1 X145.651 Y80.669 E.01686
G1 X149.46 Y84.478 E.16956
G1 X149.46 Y85.013 E.01685
G1 X145.116 Y80.669 E.1934
G1 X144.58 Y80.669 E.01686
G1 X149.46 Y85.548 E.21724
G1 X149.46 Y86.084 E.01685
G1 X144.045 Y80.668 E.24108
G1 X143.509 Y80.668 E.01686
G1 X149.46 Y86.619 E.26492
G1 X149.46 Y87.155 E.01685
G1 X142.974 Y80.668 E.28876
G1 X142.438 Y80.668 E.01686
G1 X149.46 Y87.69 E.3126
G1 X149.46 Y88.225 E.01685
G1 X141.903 Y80.668 E.33644
G1 X141.367 Y80.668 E.01686
G1 X149.46 Y88.761 E.36028
G1 X149.46 Y89.296 E.01685
G1 X140.832 Y80.668 E.38412
G1 X140.296 Y80.668 E.01686
G1 X149.46 Y89.832 E.40796
G1 X149.46 Y90.367 E.01685
G1 X139.761 Y80.668 E.4318
G1 X139.225 Y80.668 E.01686
G1 X149.46 Y90.902 E.45564
G1 X149.46 Y91.438 E.01685
G1 X138.69 Y80.668 E.47948
G1 X138.154 Y80.667 E.01686
G1 X149.46 Y91.973 E.50332
G1 X149.46 Y92.509 E.01685
G1 X137.619 Y80.667 E.52716
G1 X137.083 Y80.667 E.01686
G1 X149.46 Y93.044 E.551
G1 X149.46 Y93.579 E.01685
G1 X136.548 Y80.667 E.57484
G1 X136.012 Y80.667 E.01686
G1 X149.46 Y94.115 E.59868
G1 X149.46 Y94.65 E.01685
G1 X135.477 Y80.667 E.62252
G1 X134.941 Y80.667 E.01686
M73 Q1 S63
G1 X149.46 Y95.186 E.64636
G1 X149.46 Y95.721 E.01685
G1 X134.406 Y80.667 E.6702
G1 X133.87 Y80.667 E.01686
G1 X149.46 Y96.256 E.69404
G1 X149.46 Y96.792 E.01685
G1 X133.335 Y80.667 E.71788
G1 X132.799 Y80.666 E.01686
G1 X149.46 Y97.327 E.74172
G1 X149.46 Y97.863 E.01685
G1 X132.264 Y80.666 E.76556
G1 X131.728 Y80.666 E.01686
G1 X149.46 Y98.398 E.7894
G1 X149.46 Y98.933 E.01685
G1 X131.193 Y80.666 E.81324
G1 X130.657 Y80.666 E.01686
G1 X149.46 Y99.469 E.83708
G1 X149.46 Y100.004 E.01685
G1 X130.13 Y80.674 E.86054
G1 X130.067 Y80.684 E.00201
G1 X130.021 Y80.723 E.00189
G1 X130.002 Y80.847 E.00395
G1 X130.002 Y81.082 E.00738
G1 X149.46 Y100.54 E.86625
G1 X149.46 Y101.075 E.01685
G1 X130.002 Y81.617 E.86625
G1 X130.002 Y82.152 E.01685
M73 P2 R63
M73 Q2 S63
G1 X149.46 Y101.61 E.86625
G1 X149.46 Y102.146 E.01685
G1 X130.002 Y82.688 E.86625
G1 X130.002 Y83.223 E.01685
G1 X149.46 Y102.681 E.86625
G1 X149.46 Y103.217 E.01685
G1 X130.002 Y83.759 E.86625
G1 X130.002 Y84.294 E.01685
M73 P2 R62
G1 X149.46 Y103.752 E.86625
G1 X149.46 Y104.287 E.01685
G1 X130.002 Y84.829 E.86625
G1 X130.002 Y85.365 E.01685
G1 X149.46 Y104.823 E.86625
G1 X149.46 Y105.358 E.01685
G1 X130.002 Y85.9 E.86625
G1 X130.002 Y86.436 E.01685
G1 X149.46 Y105.894 E.86625
G1 X149.46 Y106.429 E.01685
G1 X130.002 Y86.971 E.86625
G1 X130.002 Y87.506 E.01685
G1 X149.46 Y106.964 E.86625
G1 X149.46 Y107.5 E.01685
G1 X130.002 Y88.042 E.86625
G1 X130.002 Y88.577 E.01685
G1 X149.46 Y108.035 E.86625
G1 X149.46 Y108.571 E.01685
G1 X130.002 Y89.113 E.86625
G1 X130.002 Y89.648 E.01685
G1 X149.46 Y109.106 E.86625
G1 X149.46 Y109.641 E.01685
G1 X130.002 Y90.183 E.86625
G1 X130.002 Y90.719 E.01685
G1 X149.46 Y110.177 E.86625
G1 X149.46 Y110.712 E.01685
G1 X130.002 Y91.254 E.86625
G1 X130.002 Y91.79 E.01685
G1 X149.46 Y111.248 E.86625
G1 X149.46 Y111.783 E.01685
G1 X130.002 Y92.325 E.86625
G1 X130.002 Y92.86 E.01685
G1 X149.46 Y112.318 E.86625
G1 X149.46 Y112.854 E.01685
G1 X146.638 Y110.032 E.12564
G1 X146.508 Y109.733 E.01025
G1 X146.179 Y109.17 E.02053
G1 X146.063 Y109.006 E.00634
G1 X145.643 Y108.507 E.02053
G1 X145.5 Y108.364 E.00634
G1 X145.001 Y107.944 E.02053
G1 X144.836 Y107.828 E.00636
G1 X144.134 Y107.43 E.02541
G1 X143.969 Y107.362 E.00562
G1 X130.002 Y93.396 E.62178
G1 X130.002 Y93.931 E.01685
G1 X143.104 Y107.034 E.5833
G1 X142.359 Y106.824 E.02436
G1 X130.002 Y94.467 E.55014
G1 X130.002 Y95.002 E.01685
